chrome/icons/select-all.svg

<svg height="16" viewBox="0 0 1025 1025" width="16" xmlns="http://www.w3.org/2000/svg" xmlns:xlink="http://www.w3.org/1999/xlink">
  <path d="M0,160L0,125.5C0,108.833 3.41667,92.9167 10.25,77.75C17.0833,62.5834 26.25,49.2501 37.75,37.75C49.25,26.2501 62.5833,17.0834 77.75,10.25C92.9167,3.41669 108.833,0 125.5,0L144.5,-0.5C150.167,-0.5 155.833,-0.166626 161.5,0.5C167.167,1.16669 172.25,2.66669 176.75,5C181.25,7.33337 184.917,10.5834 187.75,14.75C190.583,18.9167 192,24.6667 192,32C192,39.6667 190.583,45.5834 187.75,49.75C184.917,53.9167 181.25,57 176.75,59C172.25,61 167.167,62.25 161.5,62.75C155.833,63.25 150.333,63.5 145,63.5L137.5,63.5C88.1667,63.5 63.5,88.1667 63.5,137.5L64,160C64,168.667 60.8333,176.167 54.5,182.5C48.1667,188.833 40.6667,192 32,192C23.3333,192 15.8333,188.833 9.5,182.5C3.16667,176.167 0,168.667 0,160ZM320,64C311.333,64.0001 303.833,60.8334 297.5,54.5C291.167,48.1667 288,40.6667 288,32C288,23.3334 291.167,15.8334 297.5,9.5C303.833,3.16669 311.333,0 320,0L448,0C456.667,0 464.167,3.16669 470.5,9.5C476.833,15.8334 480,23.3334 480,32C480,40.6667 476.833,48.1667 470.5,54.5C464.167,60.8334 456.667,64.0001 448,64ZM608,64C599.333,64.0001 591.833,60.8334 585.5,54.5C579.167,48.1667 576,40.6667 576,32C576,23.3334 579.167,15.8334 585.5,9.5C591.833,3.16669 599.333,0 608,0L736,0C744.667,0 752.167,3.16669 758.5,9.5C764.833,15.8334 768,23.3334 768,32C768,40.6667 764.833,48.1667 758.5,54.5C752.167,60.8334 744.667,64.0001 736,64ZM832,32C832,23.3334 835.167,15.8334 841.5,9.5C847.833,3.16669 855.333,0 864,0L898.5,0C915.167,0 931.083,3.41669 946.25,10.25C961.417,17.0834 974.75,26.2501 986.25,37.75C997.75,49.2501 1006.92,62.5834 1013.75,77.75C1020.58,92.9167 1024,108.833 1024,125.5L1024.5,144.5C1024.5,150.167 1024.17,155.833 1023.5,161.5C1022.83,167.167 1021.33,172.25 1019,176.75C1016.67,181.25 1013.42,184.917 1009.25,187.75C1005.08,190.583 999.333,192 992,192C984.333,192 978.417,190.583 974.25,187.75C970.083,184.917 967,181.333 965,177C963,172.667 961.75,167.75 961.25,162.25C960.75,156.75 960.5,151.167 960.5,145.5L960.5,137.5C960.5,113.5 954.167,95.1667 941.5,82.5C928.833,69.8334 910.5,63.5 886.5,63.5L864,64C855.333,64.0001 847.833,60.8334 841.5,54.5C835.167,48.1667 832,40.6667 832,32ZM224,448C211,448 198.667,445.5 187,440.5C175.333,435.5 165.083,428.583 156.25,419.75C147.417,410.917 140.5,400.667 135.5,389C130.5,377.333 128,365 128,352L128,224C128,211 130.5,198.667 135.5,187C140.5,175.333 147.417,165.083 156.25,156.25C165.083,147.417 175.333,140.5 187,135.5C198.667,130.5 211,128 224,128L352,128C365,128 377.333,130.5 389,135.5C400.667,140.5 410.917,147.417 419.75,156.25C428.583,165.083 435.5,175.333 440.5,187C445.5,198.667 448,211 448,224L448,352C448,365 445.5,377.333 440.5,389C435.5,400.667 428.583,410.917 419.75,419.75C410.917,428.583 400.667,435.5 389,440.5C377.333,445.5 365,448 352,448ZM672,448C659,448 646.667,445.5 635,440.5C623.333,435.5 613.083,428.583 604.25,419.75C595.417,410.917 588.5,400.667 583.5,389C578.5,377.333 576,365 576,352L576,224C576,211 578.5,198.667 583.5,187C588.5,175.333 595.417,165.083 604.25,156.25C613.083,147.417 623.333,140.5 635,135.5C646.667,130.5 659,128 672,128L800,128C813,128 825.333,130.5 837,135.5C848.667,140.5 858.917,147.417 867.75,156.25C876.583,165.083 883.5,175.333 888.5,187C893.5,198.667 896,211 896,224L896,352C896,365 893.5,377.333 888.5,389C883.5,400.667 876.583,410.917 867.75,419.75C858.917,428.583 848.667,435.5 837,440.5C825.333,445.5 813,448 800,448ZM352,384C360.667,384 368.167,380.833 374.5,374.5C380.833,368.167 384,360.667 384,352L384,224C384,215.333 380.833,207.833 374.5,201.5C368.167,195.167 360.667,192 352,192L224,192C215.333,192 207.833,195.167 201.5,201.5C195.167,207.833 192,215.333 192,224L192,352C192,360.667 195.167,368.167 201.5,374.5C207.833,380.833 215.333,384 224,384ZM800,384C808.667,384 816.167,380.833 822.5,374.5C828.833,368.167 832,360.667 832,352L832,224C832,215.333 828.833,207.833 822.5,201.5C816.167,195.167 808.667,192 800,192L672,192C663.333,192 655.833,195.167 649.5,201.5C643.167,207.833 640,215.333 640,224L640,352C640,360.667 643.167,368.167 649.5,374.5C655.833,380.833 663.333,384 672,384ZM0,416L0,288C0,279.333 3.16667,271.833 9.5,265.5C15.8333,259.167 23.3333,256 32,256C40.6667,256 48.1667,259.167 54.5,265.5C60.8333,271.833 64,279.333 64,288L64,416C64,424.667 60.8333,432.167 54.5,438.5C48.1667,444.833 40.6667,448 32,448C23.3333,448 15.8333,444.833 9.5,438.5C3.16667,432.167 0,424.667 0,416ZM960,416L960,288C960,279.333 963.167,271.833 969.5,265.5C975.833,259.167 983.333,256 992,256C1000.67,256 1008.17,259.167 1014.5,265.5C1020.83,271.833 1024,279.333 1024,288L1024,416C1024,424.667 1020.83,432.167 1014.5,438.5C1008.17,444.833 1000.67,448 992,448C983.333,448 975.833,444.833 969.5,438.5C963.167,432.167 960,424.667 960,416ZM0,704L0,576C0,567.333 3.16667,559.833 9.5,553.5C15.8333,547.167 23.3333,544 32,544C40.6667,544 48.1667,547.167 54.5,553.5C60.8333,559.833 64,567.333 64,576L64,704C64,712.667 60.8333,720.167 54.5,726.5C48.1667,732.833 40.6667,736 32,736C23.3333,736 15.8333,732.833 9.5,726.5C3.16667,720.167 0,712.667 0,704ZM960,704L960,576C960,567.333 963.167,559.833 969.5,553.5C975.833,547.167 983.333,544 992,544C1000.67,544 1008.17,547.167 1014.5,553.5C1020.83,559.833 1024,567.333 1024,576L1024,704C1024,712.667 1020.83,720.167 1014.5,726.5C1008.17,732.833 1000.67,736 992,736C983.333,736 975.833,732.833 969.5,726.5C963.167,720.167 960,712.667 960,704ZM224,896C211,896 198.667,893.5 187,888.5C175.333,883.5 165.083,876.583 156.25,867.75C147.417,858.917 140.5,848.667 135.5,837C130.5,825.333 128,813 128,800L128,672C128,659 130.5,646.667 135.5,635C140.5,623.333 147.417,613.083 156.25,604.25C165.083,595.417 175.333,588.5 187,583.5C198.667,578.5 211,576 224,576L352,576C365,576 377.333,578.5 389,583.5C400.667,588.5 410.917,595.417 419.75,604.25C428.583,613.083 435.5,623.333 440.5,635C445.5,646.667 448,659 448,672L448,800C448,813 445.5,825.333 440.5,837C435.5,848.667 428.583,858.917 419.75,867.75C410.917,876.583 400.667,883.5 389,888.5C377.333,893.5 365,896 352,896ZM672,896C659,896 646.667,893.5 635,888.5C623.333,883.5 613.083,876.583 604.25,867.75C595.417,858.917 588.5,848.667 583.5,837C578.5,825.333 576,813 576,800L576,672C576,659 578.5,646.667 583.5,635C588.5,623.333 595.417,613.083 604.25,604.25C613.083,595.417 623.333,588.5 635,583.5C646.667,578.5 659,576 672,576L800,576C813,576 825.333,578.5 837,583.5C848.667,588.5 858.917,595.417 867.75,604.25C876.583,613.083 883.5,623.333 888.5,635C893.5,646.667 896,659 896,672L896,800C896,813 893.5,825.333 888.5,837C883.5,848.667 876.583,858.917 867.75,867.75C858.917,876.583 848.667,883.5 837,888.5C825.333,893.5 813,896 800,896ZM352,832C360.667,832 368.167,828.833 374.5,822.5C380.833,816.167 384,808.667 384,800L384,672C384,663.333 380.833,655.833 374.5,649.5C368.167,643.167 360.667,640 352,640L224,640C215.333,640 207.833,643.167 201.5,649.5C195.167,655.833 192,663.333 192,672L192,800C192,808.667 195.167,816.167 201.5,822.5C207.833,828.833 215.333,832 224,832ZM800,832C808.667,832 816.167,828.833 822.5,822.5C828.833,816.167 832,808.667 832,800L832,672C832,663.333 828.833,655.833 822.5,649.5C816.167,643.167 808.667,640 800,640L672,640C663.333,640 655.833,643.167 649.5,649.5C643.167,655.833 640,663.333 640,672L640,800C640,808.667 643.167,816.167 649.5,822.5C655.833,828.833 663.333,832 672,832ZM125.5,1024C108.833,1024 92.9167,1020.58 77.75,1013.75C62.5833,1006.92 49.25,997.75 37.75,986.25C26.25,974.75 17.0833,961.417 10.25,946.25C3.41667,931.083 0,915.167 0,898.5L-0.5,879.5C-0.5,873.833 -0.166667,868.167 0.5,862.5C1.16667,856.833 2.58333,851.75 4.75,847.25C6.91667,842.75 10.1667,839.083 14.5,836.25C18.8333,833.417 24.6667,832 32,832C39.3333,832 45.1667,833.417 49.5,836.25C53.8333,839.083 57,842.75 59,847.25C61,851.75 62.25,856.833 62.75,862.5C63.25,868.167 63.5,873.667 63.5,879L63.5,886.5C63.5,935.833 88.1667,960.5 137.5,960.5L160,960C168.667,960 176.167,963.167 182.5,969.5C188.833,975.833 192,983.333 192,992C192,1000.67 188.833,1008.17 182.5,1014.5C176.167,1020.83 168.667,1024 160,1024ZM832,992C832,984.667 833.417,978.833 836.25,974.5C839.083,970.167 842.75,967 847.25,965C851.75,963 856.75,961.75 862.25,961.25C867.75,960.75 873.333,960.5 879,960.5L886.5,960.5C935.833,960.5 960.5,935.833 960.5,886.5L960,864C960,855.333 963.167,847.833 969.5,841.5C975.833,835.167 983.333,832 992,832C1000.67,832 1008.17,835.167 1014.5,841.5C1020.83,847.833 1024,855.333 1024,864L1024,898.5C1024,915.167 1020.58,931.083 1013.75,946.25C1006.92,961.417 997.75,974.75 986.25,986.25C974.75,997.75 961.417,1006.92 946.25,1013.75C931.083,1020.58 915.167,1024 898.5,1024L879.5,1024.5C873.833,1024.5 868.167,1024.17 862.5,1023.5C856.833,1022.83 851.75,1021.42 847.25,1019.25C842.75,1017.08 839.083,1013.83 836.25,1009.5C833.417,1005.17 832,999.333 832,992ZM320,1024C311.333,1024 303.833,1020.83 297.5,1014.5C291.167,1008.17 288,1000.67 288,992C288,983.333 291.167,975.833 297.5,969.5C303.833,963.167 311.333,960 320,960L448,960C456.667,960 464.167,963.167 470.5,969.5C476.833,975.833 480,983.333 480,992C480,1000.67 476.833,1008.17 470.5,1014.5C464.167,1020.83 456.667,1024 448,1024ZM608,1024C599.333,1024 591.833,1020.83 585.5,1014.5C579.167,1008.17 576,1000.67 576,992C576,983.333 579.167,975.833 585.5,969.5C591.833,963.167 599.333,960 608,960L736,960C744.667,960 752.167,963.167 758.5,969.5C764.833,975.833 768,983.333 768,992C768,1000.67 764.833,1008.17 758.5,1014.5C752.167,1020.83 744.667,1024 736,1024Z" fill="context-fill" fill-opacity="context-fill-opacity">
  </path>
</svg>

<svg xmlns="http://www.w3.org/2000/svg" width="16" height="16" viewBox="0 0 1025 1025"><path fill="context-fill" fill-opacity="context-fill-opacity" d="M0 160v-34.5q0-25 10.25-47.75t27.5-40 40-27.5T125.5 0l19-.5q8.5 0 17 1T176.75 5t11 9.75T192 32q0 11.5-4.25 17.75t-11 9.25-15.25 3.75-16.5.75h-7.5q-74 0-74 74L64 160q0 13-9.5 22.5T32 192t-22.5-9.5T0 160m320-96q-13 0-22.5-9.5T288 32t9.5-22.5T320 0h128q13 0 22.5 9.5T480 32t-9.5 22.5T448 64Zm288 0q-13 0-22.5-9.5T576 32t9.5-22.5T608 0h128q13 0 22.5 9.5T768 32t-9.5 22.5T736 64Zm224-32q0-13 9.5-22.5T864 0h34.5q25 0 47.75 10.25t40 27.5c11.5 11.5 20.67 24.833 27.5 40S1024 108.833 1024 125.5l.5 19c0 5.667-.33 11.333-1 17q-1.005 8.5-4.5 15.25t-9.75 11c-4.17 2.833-9.917 4.25-17.25 4.25q-11.5 0-17.75-4.25T965 177t-3.75-14.75-.75-16.75v-8q0-36-19-55t-55-19L864 64q-13 0-22.5-9.5T832 32M224 448q-19.5 0-37-7.5t-30.75-20.75T135.5 389t-7.5-37V224q0-19.5 7.5-37t20.75-30.75T187 135.5t37-7.5h128q19.5 0 37 7.5t30.75 20.75T440.5 187t7.5 37v128q0 19.5-7.5 37t-20.75 30.75T389 440.5t-37 7.5Zm448 0q-19.5 0-37-7.5t-30.75-20.75T583.5 389t-7.5-37V224q0-19.5 7.5-37t20.75-30.75T635 135.5t37-7.5h128q19.5 0 37 7.5t30.75 20.75T888.5 187t7.5 37v128q0 19.5-7.5 37t-20.75 30.75T837 440.5t-37 7.5Zm-320-64q13 0 22.5-9.5T384 352V224q0-13-9.5-22.5T352 192H224q-13 0-22.5 9.5T192 224v128q0 13 9.5 22.5T224 384Zm448 0q13 0 22.5-9.5T832 352V224q0-13-9.5-22.5T800 192H672q-13 0-22.5 9.5T640 224v128q0 13 9.5 22.5T672 384ZM0 416V288q0-13 9.5-22.5T32 256t22.5 9.5T64 288v128q0 13-9.5 22.5T32 448t-22.5-9.5T0 416m960 0V288q0-13 9.5-22.5T992 256q13.005 0 22.5 9.5c6.33 6.333 9.5 13.833 9.5 22.5v128c0 8.667-3.17 16.167-9.5 22.5q-9.495 9.5-22.5 9.5-13 0-22.5-9.5T960 416M0 704V576q0-13 9.5-22.5T32 544t22.5 9.5T64 576v128q0 13-9.5 22.5T32 736t-22.5-9.5T0 704m960 0V576q0-13 9.5-22.5T992 544q13.005 0 22.5 9.5c6.33 6.333 9.5 13.833 9.5 22.5v128c0 8.667-3.17 16.167-9.5 22.5q-9.495 9.5-22.5 9.5-13 0-22.5-9.5T960 704M224 896q-19.5 0-37-7.5t-30.75-20.75T135.5 837t-7.5-37V672q0-19.5 7.5-37t20.75-30.75T187 583.5t37-7.5h128q19.5 0 37 7.5t30.75 20.75T440.5 635t7.5 37v128q0 19.5-7.5 37t-20.75 30.75T389 888.5t-37 7.5Zm448 0q-19.5 0-37-7.5t-30.75-20.75T583.5 837t-7.5-37V672q0-19.5 7.5-37t20.75-30.75T635 583.5t37-7.5h128q19.5 0 37 7.5t30.75 20.75T888.5 635t7.5 37v128q0 19.5-7.5 37t-20.75 30.75T837 888.5t-37 7.5Zm-320-64q13 0 22.5-9.5T384 800V672q0-13-9.5-22.5T352 640H224q-13 0-22.5 9.5T192 672v128q0 13 9.5 22.5T224 832Zm448 0q13 0 22.5-9.5T832 800V672q0-13-9.5-22.5T800 640H672q-13 0-22.5 9.5T640 672v128q0 13 9.5 22.5T672 832Zm-674.5 192c-16.667 0-32.583-3.42-47.75-10.25s-28.5-16-40-27.5q-17.25-17.25-27.5-40T0 898.5l-.5-19q0-8.5 1-17t4.25-15.25 9.75-11T32 832t17.5 4.25 9.5 11 3.75 15.25.75 16.5v7.5q0 74 74 74l22.5-.5q13 0 22.5 9.5T192 992q0 13.005-9.5 22.5c-6.333 6.33-13.833 9.5-22.5 9.5ZM832 992q0-11 4.25-17.5t11-9.5 15-3.75 16.75-.75h7.5q74 0 74-74L960 864q0-13 9.5-22.5T992 832q13.005 0 22.5 9.5c6.33 6.333 9.5 13.833 9.5 22.5v34.5c0 16.667-3.42 32.583-10.25 47.75s-16 28.5-27.5 40-24.833 20.67-40 27.5S915.167 1024 898.5 1024l-19 .5c-5.667 0-11.333-.33-17-1s-10.75-2.08-15.25-4.25q-6.75-3.255-11-9.75c-2.833-4.33-4.25-10.167-4.25-17.5m-512 32c-8.667 0-16.167-3.17-22.5-9.5q-9.5-9.495-9.5-22.5 0-13 9.5-22.5T320 960h128q13 0 22.5 9.5T480 992q0 13.005-9.5 22.5c-6.333 6.33-13.833 9.5-22.5 9.5Zm288 0c-8.667 0-16.167-3.17-22.5-9.5q-9.5-9.495-9.5-22.5 0-13 9.5-22.5T608 960h128q13 0 22.5 9.5T768 992q0 13.005-9.5 22.5c-6.333 6.33-13.833 9.5-22.5 9.5Z"/></svg>
